X:209
T:Japan 
C:David Grisman
N: Arranged for mandolin and guitar by Mike Stangeland
L:1/8
Q:1/4=85
M:4/4
K:F
z8 | "PROLOGUE"(3"Dm"ddd (3ddd "Em"(3ddd (3ddd | "F"(3ddd (3ddd "Em"(3ddd (3ddd | 
(3ddd (3ddd (3ddd (3ddd | (3"Bb dim "_ddd (3ddd (3AAA (3"G dim"AAA | (3GGG (3"E dim"GGG (3EEE (3"A7"EEE | 
(3EEE (3EEE E4 | "INTRODUCTION""Dm"D2 E2 F2 G2 | Ac df d4 | df cd "F"A4 | df cd Ac AG | 
"A7"{G}A6 Ac | "Dm"df cd Ac AG | "F"AG FA "C"GF EG | "Bb"FE DF "A7"ED _D2 | "Dm"[A8D8D8] | 
|: "FIRST MELODY BRE""Dm"DE FD "Em"EF GE | "F"FG AF "Em"GF EG |1 F"Dm"E DF "C"ED CE | 
"Am"DC [A2E2A,2] [A4E4A,4] :|2 "Dm"FE DF "A7"ED _DE | "Dm"DC [D2D2] D4 |: "Dm"Ac df [d4D4] | 
df cd "F"[A4F4] | df cd Ac AG | "A7"GA [eAA][eAA] [e2A2A2] Ac | "Dm"df cd Ac AG | 
"F"AG FA "C"GF EG | "Bb"FE DF "A7"ED _D2 | "Dm"_D[=DD] z[DD] [D4D4] :|: [e4A4F4D4] [e4A4G4E4] | 
[e4A4A4F4] [e4A4G4E4] |1 [e4A4F4D4] [e4A4E4C4] | [eAEA,][eAEA,] z2 [eAEA,][eAEA,] z2 :|2 [eAFD][eAFD] z2 [eAEA,][eAEA,] z2 | 
"Dm"[A2D2D2] [A2D2C2] [A2D2=B,2] [A2D2_B,2] |: [f4A4D4A,4] [f4A4D4A,4] | [f4A4D4A,4] [f4A4F4C4] | 
[f4A4F4C4] [f4A4F4C4] | [e4A4G4_D4] [e4A4G4D4] | [a4A4D4D4] [a4A4D4D4] | [f4A4F4C4] [e4c4E4C4] | 
[b4d4F4B,4] [e4A4G4_D4] | "Dm"[A2D2A,2] [A2D2B,2] [A2D2=B,2] [A2D2_D2] :| "MANDOLIN IMPROV ""Dm"D2 {G}A2 "Em"cd z2 | 
"F"(3f2d2 c2 "Em"(3d2c2 A2 | "Dm"(3_A2G2 F2 "C"(3D2F2 F2 | "Am"(3GGG (3GGG G2 (3FG_A | 
"Dm"c_A =BA "Em"_BG =AB | "F"AG AG "Em"FE DC | "Dm"FD ED "A7"_D=D _D2 | "Dm"[A6D6D6] (3DFG | 
"Dm"(3A2c2 A2 "Em"(3c2d2 c2 | "F"(3d2f2 d2 (3"Em"f2g2 f2 | (3"Dm"a2g2 a2 (3"C"c'2a2 c'2 | 
{c'}(3"Am"d'd'd' (3d'd'd' d'2 d'e' | "Dm"f'e' (3d'e'd' (3"Em"c'd'c' ac' | "F"_ag fc "Em"ed cA | 
(3"Dm"dcd (3AcA "A7"_A=A (3FGF | "Dm"D7/1C | "Dm"[A2D2D2] [A2D2D2] [A2D2D2] [A2D2D2] | 
DF [A4F4A,4] (3DDD | A3_A G3A | "A7"A6 (3GAc | "Dm"d_e dc dc A_A | "F"Ac A_A "C"=A_A GF | 
"Bb"BA GF D_D A,C | "Dm"DF Ad ef ef | d2 ef ef d2 | fg ag "F"fc AF | Ac fe dc A_A | 
"A7"[e4A4] (3a2c'2 a2 | "Dm"d'a fd af dA | "F"fd AF "C"ED CD | "Bb"BF DB "A7"AE DC | 
"Dm"DF EC [A4D4] |: "HARMONY BREAK - ""Dm"[AD]E [AF]D "Em"[AE]F [AG]E | "F"[AF]G [AD]F "Em"[AG]F [AE]G | 
|1 [AF]"Dm"E [AD]F "C"[AE]D CE | "Am"DC [e2A2E2A,2] [e4A4E4A,4] :|2 "Dm"FE DF "A7"ED _DE | 
"Dm"[D8D8] |: "Dm"[AD]c df d4 | "F"df cd A4 | df cd Ac AG | "A7"A6 Ac | "Dm"df cd Ac AG | 
"F"AG FA "C"GF EG | "Bb"FE DF "A7"ED _D2 |1 D8 :|2 (3DD"TAG""Dm"D (3DDD "Em"(3DDD (3DDD | 
"F"(3DDD (3DDD "Em"(3DDD (3DDD | [f8c8D8A,8] | z8 | z8 | 
 

